symbols/web/transgender/materialsymbolsoutlined/transgender_wght500gradN25_24px.svg

<svg xmlns="http://www.w3.org/2000/svg" height="24" width="24"><path d="M12 14.975q1.425 0 2.425-1 1-1 1-2.425 0-1.425-1-2.425-1-1-2.425-1-1.425 0-2.425 1-1 1-1 2.425 0 1.425 1 2.425 1 1 2.425 1Zm-1.075 8.15V21.15h-2V19h2v-2Q9 16.625 7.713 15.1q-1.288-1.525-1.288-3.55 0-.85.25-1.638.25-.787.675-1.487l-.65-.65-1.4 1.4-1.325-1.3 1.4-1.425-1.9-1.9v2.475h-2.15V.875h6.15v2.15h-2.45l1.875 1.9 1.425-1.4 1.3 1.3-1.4 1.425.675.675q.675-.475 1.463-.713.787-.237 1.637-.237t1.638.237q.787.238 1.462.713l3.875-3.9h-2.45V.875h6.15v6.15h-2.15V4.55l-3.9 3.9q.45.7.7 1.475.25.775.25 1.625 0 2.025-1.287 3.55Q15 16.625 13.075 17v2h2v2.15h-2v1.975Z"/></svg>

<svg xmlns="http://www.w3.org/2000/svg" height="24" width="24"><path d="M12 14.975Q13.425 14.975 14.425 13.975Q15.425 12.975 15.425 11.55Q15.425 10.125 14.425 9.125Q13.425 8.125 12 8.125Q10.575 8.125 9.575 9.125Q8.575 10.125 8.575 11.55Q8.575 12.975 9.575 13.975Q10.575 14.975 12 14.975ZM10.925 23.125V21.15H8.925V19H10.925V17Q9 16.625 7.713 15.1Q6.425 13.575 6.425 11.55Q6.425 10.7 6.675 9.912Q6.925 9.125 7.35 8.425L6.7 7.775L5.3 9.175L3.975 7.875L5.375 6.45L3.475 4.55V7.025H1.325V0.875H7.475V3.025H5.025L6.9 4.925L8.325 3.525L9.625 4.825L8.225 6.25L8.9 6.925Q9.575 6.45 10.363 6.212Q11.15 5.975 12 5.975Q12.85 5.975 13.638 6.212Q14.425 6.45 15.1 6.925L18.975 3.025H16.525V0.875H22.675V7.025H20.525V4.55L16.625 8.45Q17.075 9.15 17.325 9.925Q17.575 10.7 17.575 11.55Q17.575 13.575 16.288 15.1Q15 16.625 13.075 17V19H15.075V21.15H13.075V23.125Z"/></svg>
